packages/core/src/svgs/blxm.svg

<svg width="24" height="24" viewBox="0 0 24 24" fill="none" xmlns="http://www.w3.org/2000/svg">
<g clip-path="url(#clip0_31_7218)">
<path d="M0 0H24V24H0V0Z" fill="#F0F3FA"/>
<path fill-rule="evenodd" clip-rule="evenodd" d="M12 18C13.5913 18 15.1174 17.3679 16.2426 16.2426C17.3679 15.1174 18 13.5913 18 12C18 10.4087 17.3679 8.88258 16.2426 7.75736C15.1174 6.63214 13.5913 6 12 6C10.4087 6 8.88258 6.63214 7.75736 7.75736C6.63214 8.88258 6 10.4087 6 12C6 13.5913 6.63214 15.1174 7.75736 16.2426C8.88258 17.3679 10.4087 18 12 18ZM11.7857 12.4029V10.6886L9.21429 8.33143C9.07286 8.19 8.7 7.98857 8.35714 8.33143C8.01429 8.67429 8.21571 9.04714 8.35714 9.18857L11.7857 12.4029ZM12.2143 13.0714V11.3571L15.6429 14.5714C15.7843 14.7129 15.9857 15.0857 15.6429 15.4286C15.3 15.7714 14.9271 15.57 14.7857 15.4286L12.2143 13.0714ZM9.93 7.39714C9.8448 7.32872 9.73668 7.29543 9.62774 7.30408C9.51881 7.31272 9.4173 7.36265 9.34395 7.44366C9.27061 7.52466 9.23098 7.63062 9.23317 7.73988C9.23535 7.84913 9.27919 7.95342 9.35571 8.03143L11.7129 10.1743C11.7916 10.2454 11.8939 10.2847 12 10.2847C12.1061 10.2847 12.2084 10.2454 12.2871 10.1743L14.6443 8.03143C14.6898 7.99485 14.7274 7.94935 14.7547 7.89772C14.7821 7.84608 14.7985 7.78941 14.8032 7.73118C14.8078 7.67294 14.8005 7.61438 14.7816 7.55908C14.7628 7.50379 14.7328 7.45293 14.6936 7.40962C14.6544 7.36632 14.6068 7.33149 14.5536 7.30727C14.5005 7.28305 14.4429 7.26995 14.3845 7.26878C14.3261 7.26761 14.2681 7.2784 14.214 7.30047C14.1599 7.32254 14.1109 7.35544 14.07 7.39714L12 9.27857L9.93 7.39714ZM16.4786 9.47571C16.4238 9.44788 16.3637 9.43214 16.3023 9.42958C16.2409 9.42701 16.1797 9.43767 16.1228 9.46084C16.0659 9.48401 16.0146 9.51914 15.9725 9.56385C15.9304 9.60857 15.8983 9.66182 15.8786 9.72L15.3343 11.3571H13.9286C13.8462 11.3572 13.7656 11.3811 13.6965 11.4258C13.6273 11.4705 13.5725 11.5342 13.5386 11.6093C13.5046 11.6843 13.4931 11.7676 13.5052 11.849C13.5174 11.9305 13.5528 12.0067 13.6071 12.0686L15.1071 13.7829C15.1836 13.8625 15.2879 13.9095 15.3983 13.9142C15.5086 13.9188 15.6165 13.8807 15.6994 13.8077C15.7823 13.7348 15.8338 13.6326 15.8432 13.5226C15.8527 13.4126 15.8193 13.3031 15.75 13.2171L14.8714 12.2143H15.6429C15.7327 12.2145 15.8204 12.1865 15.8934 12.1342C15.9665 12.0819 16.0212 12.008 16.05 11.9229L16.4957 10.5771C16.6243 10.74 16.7143 10.9286 16.7143 11.1429V12.4286C16.7143 12.5422 16.7594 12.6512 16.8398 12.7316C16.9202 12.812 17.0292 12.8571 17.1429 12.8571C17.2565 12.8571 17.3655 12.812 17.4459 12.7316C17.5263 12.6512 17.5714 12.5422 17.5714 12.4286V11.1429C17.5654 10.7339 17.4169 10.3398 17.1514 10.0286C16.9671 9.7993 16.7382 9.60978 16.4786 9.47143V9.47571ZM7.41 9.55286C7.44984 9.51269 7.49724 9.4808 7.54947 9.45905C7.60169 9.43729 7.65771 9.42609 7.71429 9.42609C7.77086 9.42609 7.82688 9.43729 7.8791 9.45905C7.93133 9.4808 7.97873 9.51269 8.01857 9.55286L10.1614 11.6957C10.2392 11.7738 10.2839 11.8787 10.2863 11.9889C10.2887 12.099 10.2486 12.2058 10.1743 12.2871L8.03143 14.6443C7.98755 14.6923 7.93333 14.7296 7.87288 14.7536C7.81242 14.7775 7.74731 14.7874 7.68248 14.7824C7.61764 14.7775 7.55479 14.7578 7.49867 14.725C7.44255 14.6921 7.39464 14.647 7.35857 14.5929C7.2 14.3571 6.97286 13.9586 6.78429 13.5043C6.57114 13.03 6.45041 12.5195 6.42857 12C6.44897 11.0929 6.79943 10.2244 7.41429 9.55714L7.41 9.55286ZM7.33286 11.5714H8.82429L7.74857 10.4957C7.54062 10.8239 7.398 11.1892 7.32857 11.5714H7.33286ZM8.88857 12.4286H7.32857C7.38 12.6686 7.46571 12.9257 7.56857 13.1743C7.63714 13.3414 7.71429 13.4957 7.78286 13.6371L8.89286 12.4286H8.88857Z" fill="#203A49"/>
<path fill-rule="evenodd" clip-rule="evenodd" d="M11.9999 18.8572C13.8186 18.8572 15.5627 18.1348 16.8487 16.8488C18.1346 15.5628 18.8571 13.8187 18.8571 12.0001C18.8571 10.1814 18.1346 8.4373 16.8487 7.15134C15.5627 5.86537 13.8186 5.14293 11.9999 5.14293C10.1813 5.14293 8.43718 5.86537 7.15122 7.15134C5.86525 8.4373 5.1428 10.1814 5.1428 12.0001C5.1428 13.8187 5.86525 15.5628 7.15122 16.8488C8.43718 18.1348 10.1813 18.8572 11.9999 18.8572ZM11.9999 19.2858C13.9322 19.2858 15.7854 18.5182 17.1517 17.1518C18.5181 15.7855 19.2857 13.9324 19.2857 12.0001C19.2857 10.0678 18.5181 8.21463 17.1517 6.84829C15.7854 5.48196 13.9322 4.71436 11.9999 4.71436C10.0677 4.71436 8.21451 5.48196 6.84817 6.84829C5.48183 8.21463 4.71423 10.0678 4.71423 12.0001C4.71423 13.9324 5.48183 15.7855 6.84817 17.1518C8.21451 18.5182 10.0677 19.2858 11.9999 19.2858Z" fill="#459B6E"/>
<path d="M12.2142 10.7145V12.4288L15.6428 9.21449C15.7842 9.07306 15.9857 8.7002 15.6428 8.35734C15.3 8.01449 14.9271 8.21592 14.7857 8.35734L12.2142 10.7145ZM11.7857 13.0459V11.3316L8.3571 14.5459C8.21567 14.6916 8.01424 15.0602 8.3571 15.4031C8.69996 15.7459 9.07282 15.5488 9.21424 15.4031L11.7857 13.0459Z" fill="#459B6E"/>
</g>
<defs>
<clipPath id="clip0_31_7218">
<rect width="24" height="24" fill="white"/>
</clipPath>
</defs>
</svg>

<svg xmlns="http://www.w3.org/2000/svg" width="24" height="24" fill="none" viewBox="0 0 24 24"><g clip-path="url(#a)"><path fill="#F0F3FA" d="M0 0h24v24H0z"/><path fill="#203A49" fill-rule="evenodd" d="M12 18a6 6 0 1 0 0-12 6 6 0 0 0 0 12m-.214-5.597v-1.714L9.214 8.33c-.141-.141-.514-.342-.857 0-.343.343-.141.716 0 .858zm.428.668v-1.714l3.429 3.214c.141.142.343.515 0 .858s-.716.141-.857 0zM9.93 7.397a.429.429 0 0 0-.574.634l2.357 2.143a.43.43 0 0 0 .574 0l2.357-2.143a.429.429 0 1 0-.574-.634L12 9.28zm6.549 2.079a.43.43 0 0 0-.6.244l-.545 1.637H13.93a.428.428 0 0 0-.322.712l1.5 1.714a.43.43 0 0 0 .643-.566l-.879-1.003h.772a.43.43 0 0 0 .407-.291l.446-1.346a.9.9 0 0 1 .218.566v1.286a.428.428 0 1 0 .857 0v-1.286a1.76 1.76 0 0 0-.42-1.114 2.2 2.2 0 0 0-.672-.558zm-9.069.077a.43.43 0 0 1 .609 0l2.142 2.143a.43.43 0 0 1 .013.591l-2.143 2.357a.43.43 0 0 1-.672-.051 6.6 6.6 0 0 1-.575-1.089A4.1 4.1 0 0 1 6.43 12c.02-.907.37-1.776.985-2.443zm-.077 2.018h1.491L7.75 10.496c-.208.328-.351.693-.42 1.075zm1.556.858h-1.56c.051.24.137.497.24.745.068.167.145.322.214.463l1.11-1.208z" clip-rule="evenodd"/><path fill="#459B6E" fill-rule="evenodd" d="M12 18.857a6.857 6.857 0 1 0 0-13.714 6.857 6.857 0 0 0 0 13.714m0 .429a7.285 7.285 0 1 0 0-14.571 7.285 7.285 0 0 0 0 14.57" clip-rule="evenodd"/><path fill="#459B6E" d="M12.214 10.715v1.714l3.429-3.215c.141-.14.343-.514 0-.857s-.716-.141-.857 0zm-.428 2.33v-1.713l-3.429 3.214c-.141.146-.343.514 0 .857s.716.146.857 0z"/></g><defs><clipPath id="a"><path fill="#fff" d="M0 0h24v24H0z"/></clipPath></defs></svg>
